X: 4
T: Jenny's Chickens
R: reel
M: 4/4
L: 1/8
K: Gmaj
|: e2 ef edBd | edeg dGBd | e2 ef edBd | efge dGBd :|
|: eAAG A2 Bd | eA ~A2 dGBd | eAAG A2 Bd | [1 efge dGBd :| [2 efge dGBG ||
|: ~A2 aA gAfA | A2 ge dGBG | A2 aA gAfA | [1 efge dGBG :| [2 efge dGBd |]


Tune 756	Setting 13869

